src/pos-icons/folder-upload-outline.svg

<svg height="24" viewBox="0 0 24 24" width="24" xmlns="http://www.w3.org/2000/svg"><path d="m20 18h-16v-10h16m0-2h-8l-2-2h-6a2 2 0 0 0 -2 2v12a2 2 0 0 0 2 2h16a2 2 0 0 0 2-2v-10a2 2 0 0 0 -2-2m-4 11h-2v-4h-3l4-4 4 4h-3z"/></svg>

<?xml version="1.0" encoding="UTF-8"?><!DOCTYPE svg PUBLIC "-//W3C//DTD SVG 1.1//EN" "http://www.w3.org/Graphics/SVG/1.1/DTD/svg11.dtd"><svg xmlns="http://www.w3.org/2000/svg" xmlns:xlink="http://www.w3.org/1999/xlink" version="1.1" id="mdi-folder-upload-outline" width="24" height="24" viewBox="0 0 24 24"><path d="M20 18H4V8H20M20 6H12L10 4H4A2 2 0 0 0 2 6V18A2 2 0 0 0 4 20H20A2 2 0 0 0 22 18V8A2 2 0 0 0 20 6M16 17H14V13H11L15 9L19 13H16Z" /></svg>
